X:1
T:Title
%%score ( 1 2 ) ( 3 4 )
L:1/8
Q:1/4=95
M:6/8
K:Bb
V:1 treble nm="Grand Piano, Soprano"
V:2 treble 
V:3 bass nm="Choir Pad, Napa, CMD"
V:4 bass 
V:1
 [DF][DF][B,D] [CE][DF][Fd] | [Ec][DB][B,D] [EG] [DF]2 | [DB] [EA]2 [Ec] [EG]2 | %3
w: By~N.~T.~De~Norlawn,~1899 * * * * *|||
 [EA] [DB]2- [DB]2- [DB]/ z/ | [DF][DF][B,D] [CE][DF][Fd] | [Ec][DB][B,D] [EG] [DF]2 | %6
w: |||
 [DB]AG [CA] [=Ec]2 | =E/-[B,E]/ [A,F]2- [A,F]2- [A,F]/ z/ | [EF]AG [EA][DB][CA] | %9
w: |||
 [DB] [Ec]2 [DB] [CA]2 | [EF][DB][FA] [FB] [Gc]2 | [G_d] [^F=d]2- [Fd]2- [Fd]/ z/ | %12
w: |||
 [^Fd] [=Fe]2 [Fd] [Ec]2 | [Gc] [Fd]2 [Ec] [DB]2 | [FB] [Gc]2 [GB][FA][EG] | [EA] [DB]2- [DB]3- | %16
w: ||||
 [DB]3 z3 |] %17
w: |
V:2
 x6 | x6 | x6 | x6 | x6 | x6 | z C2 z3 | .C3 z3 | z E2 z3 | x6 | x6 | x6 | x6 | x6 | x6 | x6 | %16
 x6 |] %17
V:3
 [B,,B,]B,F, [B,,B,] [B,,B,]2 | [B,,B,] [B,,B,]2 [B,,B,] [B,,B,]2 | [B,,F,] F,2 [F,A,] [F,C]2 | %3
 F, [B,,F,]2- [B,,F,]2- [B,,F,]/ z/ | [B,,B,]B,F, [B,,B,] [B,,B,]2 | %5
 [B,,B,] [B,,B,]2 [B,,B,] [B,,B,]2 | [B,,F,]F,=E, [C,F,] [C,G,]2 | [C,G,] F,2- F,2- F,/ z/ | %8
 F, F,2 F, F,2 | F, F,2 F, F,2 | F,F,-[C,F,] [D,B,] [E,B,]2 | [E,G,] [D,A,]2- [D,A,]2- [D,A,]/ z/ | %12
 [D,A,] [C,A,]2 [D,B,] [E,G,]2 | [E,B,] [F,B,]2 [F,A,] [G,B,]2 | [D,B,] [E,B,]2 [=E,C] [F,C]2 | %15
 F, [B,,F,]2- [B,,F,]3- | [B,,F,]3 z3 |] %17
V:4
 z B,,2 z3 | x6 | x6 | x6 | z B,,2 z3 | x6 | z C,2 z3 | x6 | x6 | x6 | z .B,,2 z3 | x6 | x6 | x6 | %14
 x6 | x6 | x6 |] %17

